svgs/simplenote.svg

<svg width="192" height="192" viewBox="0 0 192 192" fill="none" xmlns="http://www.w3.org/2000/svg"><path d="M89.432 169.864a31.597 31.597 0 0 0 19.708-4.692 32.004 32.004 0 0 0 12.904-15.734c7.394-19.87-7.238-36.687-26.016-41.977a81.867 81.867 0 0 1-34.167-17.292c-9.434-7.925-15.757-18.98-17.834-31.182A54.977 54.977 0 0 1 43.438 43a74.815 74.815 0 0 0-19.732 36.593 75.21 75.21 0 0 0 2.792 41.555 74.602 74.602 0 0 0 24.446 33.576 73.696 73.696 0 0 0 38.487 15.14Zm15.385-147.636c-6.21-.795-12.504.5-17.916 3.685a28.814 28.814 0 0 0-12.038 13.94c-6.203 14.07 3.343 32.401 24.776 38.41a80.164 80.164 0 0 1 32.946 16.287c10.064 7.745 17.067 18.877 19.747 31.389a74.095 74.095 0 0 1 .69 18.061c10.995-13.386 17.003-30.257 16.978-47.672 0-43.615-38.228-73.495-65.183-74.1Z" stroke="#000" stroke-width="12" stroke-linejoin="round"/></svg>

<svg id="vector" xmlns="http://www.w3.org/2000/svg" width="192" height="192" viewBox="0 0 192 192"><path fill="#00000000" d="M89.432,169.864C96.333,170.507 103.253,168.859 109.14,165.172C115.027,161.485 119.558,155.96 122.044,149.438C129.438,129.568 114.806,112.751 96.028,107.461C83.448,104.487 71.742,98.563 61.861,90.169C52.427,82.244 46.104,71.188 44.027,58.987C43.052,53.716 42.854,48.329 43.439,43C33.551,53.063 26.707,65.755 23.707,79.593C20.707,93.431 21.676,107.844 26.499,121.148C31.322,134.452 39.801,146.097 50.945,154.724C62.089,163.35 75.438,168.601 89.432,169.864V169.864Z" stroke-linejoin="round" stroke-width="12" stroke="#000000" id="path_0"/><path fill="#00000000" d="M104.817,22.228C98.608,21.434 92.313,22.728 86.9,25.913C81.488,29.097 77.259,33.995 74.863,39.853C68.66,53.923 78.206,72.254 99.639,78.264C111.71,81.056 122.984,86.629 132.585,94.55C142.649,102.295 149.652,113.427 152.332,125.939C153.298,131.907 153.53,137.974 153.022,144C164.017,130.614 170.025,113.743 170,96.328C170,52.713 131.772,22.833 104.817,22.228Z" stroke-linejoin="round" stroke-width="12" stroke="#000000" id="path_1"/></svg>
